icons/glyphs/glyph-rosegarden.svg

<?xml version="1.0" encoding="UTF-8" standalone="no"?><svg height="16" viewBox="0 0 4.2333332 4.2333332" width="16" xmlns="http://www.w3.org/2000/svg"><sodipodi:namedview/><metadata><rdf:RDF><cc:Work><dc:format>image/svg+xml</dc:format><dc:type/><dc:title/></cc:Work></rdf:RDF></metadata><path d="m2.3321917 2.8244269c-.023497.000782-.046604.00568-.069151.014.00188.00646.0044.014896.00594.020576.014603.053825.024763.1023169.036485.1455149.015712.057915.021704.092034.036273.1457269.017181.063329.034429.1068586.060879.1677875.024779.057084.039207.094942.060666.1344845.0246.045333.023117.1187274.036485.1679997.01519.05598.036669.1121049.048788.1567572.01536.056622.036273.07436.036273.1457269 0 .083639-.015756.093493-.097151.056-.055837-.025722-.077249-.1594901-.2430904-.1800904-.3414263-.046189-.5575425.1563556-.562332.4344232.2175515-.1155066.5489114-.2160569.720362-.2095752.069742 0 .1199472.0047.1580299.022273.028805.013273-.037971.1873026-.00955.1873026h.2172117s.00828-.2144149.00445-.23206c-.011948-.055045 0-.1228756 0-.179242 0-.046883.012303-.1066547.012303-.1679996 0-.048129.014084-.088163.052394-.1234543.014324-.013197.024331-.029813.036485-.044758.047882-.058822-.162266.026695-.2186965.078697 0 0-.012303-.021189-.012303-.089515 0-.058407-.033951-.1140985-.048576-.1679996-.016198-.05972-.019364-.1049256-.03648-.1679996-.022491-.082901-.041712-.1541345-.060666-.2239995-.00511-.018843-.012042-.037846-.019091-.057485-.048763-.02069-.09803-.034693-.1459391-.033091z" fill="#d0d0d0" fill-rule="evenodd" opacity=".3"/><path d="m2.4096226-.0000005c-.1650536.035708-.2276155.3258538-.4083324.3234841-.218744-.00175-.4920506-.00899-.7392407-.099909-.2293722-.00518-.28074952.3708034-.50718052.3457568-.1747349.022224-.5986187.2189551-.6751804.5222412-.055048.1870952-.025669.396686.1003331.5498169.1548784.2346157.3516474.4494106.592029.599241.1762944.085621.37815322.0859.56254412.1461512.019333.014427.049344.045981.077212.075303-.00246-.00371-.0009893-.00238-.00382-.00658-.1508694-.1540332-.169466-.3948946-.1450916-.5958469.098671-.026603.021047-.1506256-.01506-.2318475v-.00106c.1690015.1360656.3878869.2412038.6140895.239483.2138383-.0093.4296603-.196168.6403924-.079333.1693251.057776.3817718.2279297.1904845.3894536-.1344105.074167-.2781754.1375092-.3726961.26006-.1436703.1152612-.3253008.1754255-.4929686.2511509-.1653076.09109-.3138882-.084335-.3667567-.1622722-.0949.088073-.2799584.1474624-.177545.3029083.061309.2938558.3685716.6308477.6200288.644847.2513703-.019258.1226001-.3369654.2066056-.4857564.1679545-.309191.4403796-.1082523.6200288.028848.1891479.1238866.2736495-.2333916.4505445-.079333.1209814-.05452.2727888-.2535437.4176656-.3476659.1122898-.1570162-.0585231-.4008603.184123-.4664528.1572807-.1184249.1738233-.3372411.3113932-.4740898.1472252-.1535306.114829-.4852318-.1539997-.4558475-.1752984-.0015747-.5078411.283048-.5419683-.0689391-.0925637-.2798246-.160123-.5963909-.4106657-.7852673-.160085-.1736596-.4287192-.3328233-.5769684-.3385446zm-.081666.1756359c-.095761.09538-.092781.2806621-.2541206.2814842.144359.025231.1403903.1106933-.00615.077424-.1735054-.019772-.4171621-.050644-.5095139.1383027-.1189886.1612025-.087118.3652474.019727.5196957.0226.2350534.297506.063108.4499082.094394.190879-.067627.4077024-.2293293.3580597-.4598777-.030352-.164338.2206075-.1112842.1016058-.2742722-.1204655-.065369-.3011334-.3305452-.047515-.3306962.2602847.052154.367857.3207321.5290291.4999686.1259447.173766.2062943.3788094.2123328.5945743.027718.1533808.1165965.3540541-.038394.4698475-.161398.090619.1655296.042434.1332117-.088454.0259809-.1515572.2499298-.2980558.3559388-.2560297-.0970162.073313-.3354027.3268366-.1003331.3695143.070804.0069.1845365.025385.040091.013152-.2017811-.070432-.3822375.065244-.4827869.2305749-.0909693.048961.0178263-.2196563-.0721211-.2749084.0800581-.2226513-.0613775-.4404523-.2649406-.5332722-.1825457-.0419425-.2427368-.3448138-.2787266-.4161809-.0303054.2302454-.1768815.4168252-.4110899.4740898.1621094.00463.3151699.090725.4834231.077.09287.040534.3730593-.038376.3099083.1092421-.2016842.0296895-.3952834-.072127-.5977561-.064909-.2161397-.0423385-.4380437-.0528548-.655453-.0485757-.1405772-.1151417-.1618303-.3348236-.1798784-.5086654-.023196-.1585288.1632699-.2843607.2006662-.3646356-.131211-.1119498-.3577511.00317-.4278475.1414845-.071843.1480059-.1622394.2897282-.1830602.4556353-.05434602.1306246-.02663902.301989.1459391.2882721-.045778.1815215-.25998822-.1298149-.29802962-.2237874-.029485-.2046079.138719-.3659915.22336312-.5353926.1342107-.1193741.2952901-.2533879.4817261-.2543328.1226899-.041404.1875436.1049098.3005751.038606.2164763.063083.3326175-.023458.3979385-.1836966.018197-.021887.037381-.043881.0642729-.0555756zm-1.41017852.4197869c-.093018.2322957-.2126692.5287098-.039454.7532407.1104101.1411666.30436102.2480144.25942362.4575444-.00763.1324759-.015054.3453532-.16375722.1856056-.1672754-.0784049-.2402517-.2568365-.3985757-.3489385-.1297007-.0856031-.3464596-.3067075-.2609085-.4087567.080876.181701.228454.3859244.444605.39709.27560362-.023975-.07923-.2723514-.096515-.4204233-.1088591-.1938019-.067837-.474416.1427572-.5805744.034996-.018146.073213-.030338.1124246-.0347878zm1.11320962.1022422c.1230031.00657.2850684.1422931.2691811.1724541-.1244619-.116099-.088365-.00911-.074879.086545.011486.030876.012314.063236-.00573.093121.01289-.020013.011034-.055476.00573-.093121-.037385-.1004991-.1906023-.1848076-.1983329-.1128482.095978.041574.1440773.2038356.04306.2526358.1120794-.1054406-.045792-.2976155-.1425452-.1811511.1800291.1597665-.2760592.1018081-.1107269-.07106.03461-.057755.1004025-.1186963.1646056-.1408481.015342-.00502.032064-.00666.049636-.00573z" fill="#d0d0d0" fill-rule="evenodd" opacity=".7"/></svg>

<?xml version="1.0" encoding="UTF-8" standalone="no"?>
<!-- Created with Inkscape (http://www.inkscape.org/) -->

<svg
   xmlns:dc="http://purl.org/dc/elements/1.1/"
   xmlns:cc="http://creativecommons.org/ns#"
   xmlns:rdf="http://www.w3.org/1999/02/22-rdf-syntax-ns#"
   xmlns:svg="http://www.w3.org/2000/svg"
   xmlns="http://www.w3.org/2000/svg"
   xmlns:xlink="http://www.w3.org/1999/xlink"
   xmlns:sodipodi="http://sodipodi.sourceforge.net/DTD/sodipodi-0.dtd"
   xmlns:inkscape="http://www.inkscape.org/namespaces/inkscape"
   width="16"
   height="16"
   viewBox="0 0 4.2333332 4.2333332"
   version="1.1"
   id="svg8"
   inkscape:version="0.92+devel (d0390b9f4f, 2017-07-31, custom)"
   sodipodi:docname="glyph-rosegarden.svg">
  <defs
     id="defs2">
    <linearGradient
       xlink:href="#linearGradient4174"
       id="linearGradient4181"
       x1="417.39099"
       y1="534.987"
       x2="402.98599"
       y2="504.664"
       gradientUnits="userSpaceOnUse"
       gradientTransform="matrix(0.26458333,0,0,0.26458333,-106.64804,-134.81697)" />
    <linearGradient
       id="linearGradient4174">
      <stop
         style="stop-color:#df2323;stop-opacity:1"
         offset="0"
         id="stop2" />
      <stop
         style="stop-color:#e76f6f;stop-opacity:1"
         offset="1"
         id="stop4" />
    </linearGradient>
  </defs>
  <sodipodi:namedview
     id="base"
     pagecolor="#002466"
     bordercolor="#ffffff"
     borderopacity="0.38039216"
     inkscape:pageopacity="1"
     inkscape:pageshadow="2"
     inkscape:zoom="25.75"
     inkscape:cx="10.094581"
     inkscape:cy="7.9162778"
     inkscape:document-units="px"
     inkscape:current-layer="svg8"
     inkscape:document-rotation="0"
     showgrid="false"
     inkscape:showpageshadow="false"
     borderlayer="true"
     inkscape:window-width="1920"
     inkscape:window-height="1051"
     inkscape:window-x="0"
     inkscape:window-y="0"
     inkscape:window-maximized="1"
     units="px" />
  <metadata
     id="metadata5">
    <rdf:RDF>
      <cc:Work
         rdf:about="">
        <dc:format>image/svg+xml</dc:format>
        <dc:type
           rdf:resource="http://purl.org/dc/dcmitype/StillImage" />
        <dc:title></dc:title>
      </cc:Work>
    </rdf:RDF>
  </metadata>
  <path
     style="opacity:0.3;fill:#d0d0d0;fill-rule:evenodd;stroke:none;stroke-width:0.26458335"
     d="m 2.3321917,2.8244269 c -0.023497,7.82e-4 -0.046604,0.00568 -0.069151,0.014 0.00188,0.00646 0.0044,0.014896 0.00594,0.020576 0.014603,0.053825 0.024763,0.1023169 0.036485,0.1455149 0.015712,0.057915 0.021704,0.092034 0.036273,0.1457269 0.017181,0.063329 0.034429,0.1068586 0.060879,0.1677875 0.024779,0.057084 0.039207,0.094942 0.060666,0.1344845 0.0246,0.045333 0.023117,0.1187274 0.036485,0.1679997 0.01519,0.05598 0.036669,0.1121049 0.048788,0.1567572 0.01536,0.056622 0.036273,0.07436 0.036273,0.1457269 0,0.083639 -0.015756,0.093493 -0.097151,0.056 C 2.4318417,3.9532785 2.4104297,3.8195104 2.2445883,3.7989101 1.903162,3.7527211 1.6870458,3.9552657 1.6822563,4.2333333 1.8998078,4.1178267 2.2311677,4.0172764 2.4026183,4.0237581 c 0.069742,0 0.1199472,0.0047 0.1580299,0.022273 0.028805,0.013273 -0.037971,0.1873026 -0.00955,0.1873026 h 0.2172117 c 0,0 0.00828,-0.2144149 0.00445,-0.23206 -0.011948,-0.055045 0,-0.1228756 0,-0.179242 0,-0.046883 0.012303,-0.1066547 0.012303,-0.1679996 0,-0.048129 0.014084,-0.088163 0.052394,-0.1234543 0.014324,-0.013197 0.024331,-0.029813 0.036485,-0.044758 0.047882,-0.058822 -0.162266,0.026695 -0.2186965,0.078697 0,0 -0.012303,-0.021189 -0.012303,-0.089515 0,-0.058407 -0.033951,-0.1140985 -0.048576,-0.1679996 -0.016198,-0.05972 -0.019364,-0.1049256 -0.03648,-0.1679996 -0.022491,-0.082901 -0.041712,-0.1541345 -0.060666,-0.2239995 -0.00511,-0.018843 -0.012042,-0.037846 -0.019091,-0.057485 -0.048763,-0.02069 -0.09803,-0.034693 -0.1459391,-0.033091 z"
     id="path10"
     inkscape:label="#"
     inkscape:connector-curvature="0" />
  <path
     style="opacity:0.7;fill:#d0d0d0;fill-opacity:1;fill-rule:evenodd;stroke:none;stroke-width:0.26458332"
     d="M 2.4096226,-5e-7 C 2.244569,0.0357075 2.1820071,0.3258533 2.0012902,0.3234836 1.7825462,0.3217336 1.5092396,0.3144936 1.2620495,0.2235746 1.0326773,0.2183946 0.98129998,0.594378 0.75486898,0.5693314 c -0.1747349,0.022224 -0.5986187,0.2189551 -0.6751804,0.5222412 -0.055048,0.1870952 -0.025669,0.396686 0.1003331,0.5498169 0.1548784,0.2346157 0.3516474,0.4494106 0.592029,0.599241 0.1762944,0.085621 0.37815322,0.0859 0.56254412,0.1461512 0.019333,0.014427 0.049344,0.045981 0.077212,0.075303 -0.00246,-0.00371 -9.893e-4,-0.00238 -0.00382,-0.00658 C 1.2571174,2.3014715 1.2385208,2.0606101 1.2628952,1.8596578 1.3615662,1.8330548 1.2839422,1.7090322 1.2478352,1.6278103 v -0.00106 C 1.4168367,1.7628159 1.6357221,1.8679541 1.8619247,1.8662333 2.075763,1.8569333 2.291585,1.6700653 2.5023171,1.7869003 2.6716422,1.8446763 2.8840889,2.01483 2.6928016,2.1763539 2.5583911,2.2505209 2.4146262,2.3138631 2.3201055,2.4364139 2.1764352,2.5516751 1.9948047,2.6118394 1.8271369,2.6875648 1.6618293,2.7786548 1.5132487,2.6032298 1.4603802,2.5252926 1.3654802,2.6133656 1.1804218,2.672755 1.2828352,2.8282009 1.3441442,3.1220567 1.6514068,3.4590486 1.902864,3.4730479 2.1542343,3.4537899 2.0254641,3.1360825 2.1094696,2.9872915 2.2774241,2.6781005 2.5498492,2.8790392 2.7294984,3.0161395 2.9186463,3.1400261 3.0031479,2.7827479 3.1800429,2.9368065 3.3010243,2.8822865 3.4528317,2.6832628 3.5977085,2.5891406 3.7099983,2.4321244 3.5391854,2.1882803 3.7818315,2.1226878 3.9391122,2.0042629 3.9556548,1.7854467 4.0932247,1.648598 4.2404499,1.4950674 4.2080537,1.1633662 3.939225,1.1927505 3.7639266,1.1911758 3.4313839,1.4757985 3.3972567,1.1238114 3.304693,0.8439868 3.2371337,0.5274205 2.986591,0.3385441 2.826506,0.1648845 2.5578718,0.0057208 2.4096226,-5e-7 Z M 2.3279566,0.1756354 C 2.2321956,0.2710154 2.2351756,0.4562975 2.073836,0.4571196 2.218195,0.4823506 2.2142263,0.5678129 2.067686,0.5345436 1.8941806,0.5147716 1.6505239,0.4838996 1.5581721,0.6728463 1.4391835,0.8340488 1.4710541,1.0380937 1.5778991,1.192542 1.6004991,1.4275954 1.8754051,1.25565 2.0278073,1.286936 2.2186863,1.219309 2.4355097,1.0576067 2.385867,0.8270583 2.355515,0.6627203 2.6064745,0.7157741 2.4874728,0.5527861 2.3670073,0.4874171 2.1863394,0.2222409 2.4399578,0.2220899 c 0.2602847,0.052154 0.367857,0.3207321 0.5290291,0.4999686 0.1259447,0.173766 0.2062943,0.3788094 0.2123328,0.5945743 0.027718,0.1533808 0.1165965,0.3540541 -0.038394,0.4698475 -0.161398,0.090619 0.1655296,0.042434 0.1332117,-0.088454 C 3.3021183,1.5464691 3.5260672,1.3999705 3.6320762,1.4419966 3.53506,1.5153096 3.2966735,1.7688332 3.5317431,1.8115109 c 0.070804,0.0069 0.1845365,0.025385 0.040091,0.013152 C 3.370053,1.7542309 3.1895966,1.8899069 3.0890472,2.0552378 2.9980779,2.1041988 3.1068735,1.8355815 3.0169261,1.7803294 3.0969842,1.5576781 2.9555486,1.3398771 2.7519855,1.2470572 2.5694398,1.2051147 2.5092487,0.9022434 2.4732589,0.8308763 2.4429535,1.0611217 2.2963774,1.2477015 2.062169,1.3049661 c 0.1621094,0.00463 0.3151699,0.090725 0.4834231,0.077 0.09287,0.040534 0.3730593,-0.038376 0.3099083,0.1092421 C 2.6538162,1.5208977 2.460217,1.4190812 2.2577443,1.4262992 2.0416046,1.3839607 1.8197006,1.3734444 1.6022913,1.3777235 1.4617141,1.2625818 1.440461,1.0428999 1.4224129,0.8690581 1.3992169,0.7105293 1.5856828,0.5846974 1.6230791,0.5044225 1.4918681,0.3924727 1.265328,0.5075925 1.1952316,0.645907 1.1233886,0.7939129 1.0329922,0.9356352 1.0121714,1.1015423 0.95782538,1.2321669 0.98553238,1.4035313 1.1581105,1.3898144 1.1123325,1.5713359 0.89812228,1.2599995 0.86008088,1.166027 0.83059588,0.9614191 0.99879988,0.8000355 1.083444,0.6306344 1.2176547,0.5112603 1.3787341,0.3772465 1.5651701,0.3763016 1.68786,0.3348976 1.7527137,0.4812114 1.8657452,0.4149076 2.0822215,0.4779906 2.1983627,0.3914496 2.2636837,0.231211 2.2818807,0.209324 2.3010647,0.18733 2.3279566,0.1756354 Z M 0.91777808,0.5954223 C 0.82476008,0.827718 0.70510888,1.1241321 0.87832408,1.348663 0.98873418,1.4898296 1.1826851,1.5966774 1.1377477,1.8062074 1.1301177,1.9386833 1.1226937,2.1515606 0.97399048,1.991813 0.80671508,1.9134081 0.73373878,1.7349765 0.57541478,1.6428745 0.44571408,1.5572714 0.22895518,1.336167 0.31450628,1.2341178 c 0.080876,0.181701 0.228454,0.3859244 0.444605,0.39709 0.27560362,-0.023975 -0.07923,-0.2723514 -0.096515,-0.4204233 -0.1088591,-0.1938019 -0.067837,-0.474416 0.1427572,-0.5805744 0.034996,-0.018146 0.073213,-0.030338 0.1124246,-0.0347878 z M 2.0309877,0.6976645 c 0.1230031,0.00657 0.2850684,0.1422931 0.2691811,0.1724541 -0.1244619,-0.116099 -0.088365,-0.00911 -0.074879,0.086545 0.011486,0.030876 0.012314,0.063236 -0.00573,0.093121 0.01289,-0.020013 0.011034,-0.055476 0.00573,-0.093121 C 2.1879048,0.8561645 2.0346875,0.771856 2.0269569,0.8438154 2.1229349,0.8853894 2.1710342,1.047651 2.0700169,1.0964512 2.1820963,0.9910106 2.0242249,0.7988357 1.9274717,0.9153001 2.1075008,1.0750666 1.6514125,1.0171082 1.8167448,0.8442401 1.8513548,0.7864851 1.9171473,0.7255438 1.9813504,0.703392 c 0.015342,-0.00502 0.032064,-0.00666 0.049636,-0.00573 z"
     id="path12"
     inkscape:connector-curvature="0"
     inkscape:label="#" />
</svg>
